Costumes/V-story-3.svg

<?xml version="1.0" encoding="utf-8"?>
<!-- Generator: Adobe Illustrator 18.0.0, SVG Export Plug-In . SVG Version: 6.00 Build 0)  -->
<!DOCTYPE svg PUBLIC "-//W3C//DTD SVG 1.1//EN" "http://www.w3.org/Graphics/SVG/1.1/DTD/svg11.dtd">
<svg version="1.1" id="Layer_2" xmlns="http://www.w3.org/2000/svg" xmlns:xlink="http://www.w3.org/1999/xlink" x="0px" y="0px"
	 viewBox="0 0 44.8 47.7" enable-background="new 0 0 44.8 47.7" xml:space="preserve">
<g>
	<path fill="#41A2F2" d="M44.8,0.2c-0.1,0.8-0.1,1.7-0.2,2.5c0,0.1-0.4,0.3-0.6,0.3c-0.6,0.1-1.3,0-1.9,0.1c-1.4,0.2-2.5,0.9-3,2.1
		c-1.9,4.2-3.9,8.4-5.6,12.7c-1.5,3.8-2.6,7.7-4.1,11.6c-1.4,3.7-3,7.3-4.5,11c-0.9,2.2-1.9,4.5-2.8,6.7c-0.1,0.1-0.1,0.4-0.2,0.4
		c-0.9,0.1-1.8,0.2-2.7,0.1c-0.3,0-0.7-0.6-0.8-0.9c-1.8-5-3.6-9.9-5.4-14.9c-1.5-4.1-2.9-8.2-4.3-12.3c-1-2.9-2.1-5.7-3-8.6
		C5.2,9.5,5,8,4.5,6.6C4.2,5.8,3.8,4.9,3.3,4.1C2.8,3.3,1.9,3,0.9,3C0.6,2.9,0.3,3,0,3c0-0.8,0-1.5,0-2.1c0-0.5,0.1-0.7,0.6-0.7
		c2.7,0,5.4,0,8.1,0c1.7,0,3.3,0,5-0.1c1.4,0,1.4,0,1.3,1.4c0,0.2-0.1,0.4-0.1,0.5c-0.1,1.1-0.1,1.1-1.3,1.2
		c-0.8,0.1-1.5,0.4-2.2,0.7C11,4,11,4.5,10.9,4.9c0,0.2,0.1,0.5,0.2,0.7c0.9,2.7,1.9,5.3,2.8,8c1.4,3.9,2.8,7.8,4.2,11.8
		c1.1,3.2,2.2,6.5,3.3,9.7c0.3,0.9,0.7,1.7,1.1,2.8c0.6-1.2,1.1-2.2,1.5-3.3c1.9-4.6,3.8-9.3,5.6-13.9c1.7-4.5,3.4-9.1,5-13.6
		c0.2-0.5,0.3-1,0.4-1.5c0.4-1,0.1-1.7-0.9-1.9c-1.1-0.2-2.3-0.4-3.5-0.4C30,3.1,30,3,30,2.4c0.1-0.6,0-1.2,0-1.8
		C34.8-0.6,39.8,0.5,44.8,0.2z"/>
</g>
</svg>

<?xml version="1.0" encoding="UTF-8" standalone="no"?>
<!-- Generator: Adobe Illustrator 18.0.0, SVG Export Plug-In . SVG Version: 6.00 Build 0)  -->

<svg
   version="1.1"
   id="Layer_2"
   x="0px"
   y="0px"
   viewBox="0 0 44.8 47.716243"
   enable-background="new 0 0 44.8 47.7"
   xml:space="preserve"
   sodipodi:docname="V-story-3.svg"
   width="44.799999"
   height="47.716244"
   xmlns:inkscape="http://www.inkscape.org/namespaces/inkscape"
   xmlns:sodipodi="http://sodipodi.sourceforge.net/DTD/sodipodi-0.dtd"
   xmlns="http://www.w3.org/2000/svg"
   xmlns:svg="http://www.w3.org/2000/svg"><defs
   id="defs9" /><sodipodi:namedview
   id="namedview7"
   pagecolor="#ffffff"
   bordercolor="#000000"
   borderopacity="0.25"
   inkscape:showpageshadow="2"
   inkscape:pageopacity="0.0"
   inkscape:pagecheckerboard="0"
   inkscape:deskcolor="#d1d1d1" />
<g
   id="g4"
   transform="translate(0,-0.02517731)">
	<path
   fill="#41a2f2"
   d="M 44.8,0.2 C 44.7,1 44.7,1.9 44.6,2.7 44.6,2.8 44.2,3 44,3 c -0.6,0.1 -1.3,0 -1.9,0.1 -1.4,0.2 -2.5,0.9 -3,2.1 -1.9,4.2 -3.9,8.4 -5.6,12.7 -1.5,3.8 -2.6,7.7 -4.1,11.6 -1.4,3.7 -3,7.3 -4.5,11 C 24,42.7 23,45 22.1,47.2 22,47.3 22,47.6 21.9,47.6 21,47.7 20.1,47.8 19.2,47.7 18.9,47.7 18.5,47.1 18.4,46.8 16.6,41.8 14.8,36.9 13,31.9 11.5,27.8 10.1,23.7 8.7,19.6 7.7,16.7 6.6,13.9 5.7,11 5.2,9.5 5,8 4.5,6.6 4.2,5.8 3.8,4.9 3.3,4.1 2.8,3.3 1.9,3 0.9,3 0.6,2.9 0.3,3 0,3 0,2.2 0,1.5 0,0.9 0,0.4 0.1,0.2 0.6,0.2 c 2.7,0 5.4,0 8.1,0 1.7,0 3.3,0 5,-0.1 1.4,0 1.4,0 1.3,1.4 C 15,1.7 14.9,1.9 14.9,2 14.8,3.1 14.8,3.1 13.6,3.2 12.8,3.3 12.1,3.6 11.4,3.9 11,4 11,4.5 10.9,4.9 c 0,0.2 0.1,0.5 0.2,0.7 0.9,2.7 1.9,5.3 2.8,8 1.4,3.9 2.8,7.8 4.2,11.8 1.1,3.2 2.2,6.5 3.3,9.7 0.3,0.9 0.7,1.7 1.1,2.8 0.6,-1.2 1.1,-2.2 1.5,-3.3 1.9,-4.6 3.8,-9.3 5.6,-13.9 1.7,-4.5 3.4,-9.1 5,-13.6 0.2,-0.5 0.3,-1 0.4,-1.5 0.4,-1 0.1,-1.7 -0.9,-1.9 C 33,3.5 31.8,3.3 30.6,3.3 30,3.1 30,3 30,2.4 30.1,1.8 30,1.2 30,0.6 34.8,-0.6 39.8,0.5 44.8,0.2 Z"
   id="path2" />
</g>
</svg>
